; generated by Slic3r 1.35.0.24-prusa3d on 2017-07-10 at 07:17:25

; 

; external perimeters extrusion width = 0.42mm
; perimeters extrusion width = 0.45mm
; infill extrusion width = 0.45mm
; solid infill extrusion width = 0.45mm
; top infill extrusion width = 0.42mm
; first layer extrusion width = 0.42mm

M107 ; disable fan
M83  ; extruder relative mode
M104 S215 ; set extruder temp
M140 S55 ; set bed temp
M190 S55 ; wait for bed temp
M109 S215 ; wait for extruder temp
G28 W ; home all without mesh bed level
G80 ; mesh bed leveling
G1 Y-3.0 F1000.0 ; go outside pritn area
G1 X60.0 E9.0  F1000.0 ; intro line
G1 X100.0 E12.5  F1000.0 ; intro line
G21 ; set units to millimeters
G90 ; use absolute coordinates
M83 ; use relative distances for extrusion
G1 E-0.80000 F2100.00000 ; retract
G1 Z0.200 F7200.000 ; move to next layer (0)
G1 X92.754 Y18.722 F7200.000 ; move to first skirt point
G1 E0.80000 F2100.00000 ; unretract
M204 S1000 ; adjust acceleration
G1 F2100
G1 X93.088 Y18.088 E0.02249 ; skirt
G1 X93.596 Y17.582 E0.02249 ; skirt
G1 X94.232 Y17.250 E0.02249 ; skirt
G1 X94.938 Y17.124 E0.02249 ; skirt
G1 X155.004 Y17.123 E1.88332 ; skirt
G1 X155.902 Y17.301 E0.02872 ; skirt
G1 X156.670 Y17.808 E0.02884 ; skirt
G1 X157.187 Y18.569 E0.02884 ; skirt
G1 X157.377 Y19.468 E0.02884 ; skirt
G1 X157.377 Y190.500 E5.36257 ; skirt
G1 X157.246 Y191.278 E0.02473 ; skirt
G1 X156.912 Y191.912 E0.02249 ; skirt
G1 X156.401 Y192.420 E0.02260 ; skirt
G1 X155.764 Y192.751 E0.02249 ; skirt
G1 X155.054 Y192.876 E0.02260 ; skirt
G1 X94.996 Y192.877 E1.88308 ; skirt
G1 X94.222 Y192.746 E0.02461 ; skirt
G1 X93.579 Y192.405 E0.02284 ; skirt
G1 X93.068 Y191.885 E0.02284 ; skirt
G1 X92.741 Y191.239 E0.02272 ; skirt
G1 X92.623 Y190.520 E0.02284 ; skirt
G1 X92.623 Y19.500 E5.36222 ; skirt
G1 X92.744 Y18.781 E0.02285 ; skirt
G1 F5760
G1 X93.088 Y18.088 E-0.26821 ; wipe and retract
G1 F5760
G1 X93.596 Y17.582 E-0.24839 ; wipe and retract
G1 F5760
G1 X94.219 Y17.257 E-0.24340 ; wipe and retract
G1 E-0.04000 F2100.00000 ; retract
G1 X151.316 Y167.396 F7200.000 ; move to first perimeter point
G1 E0.80000 F2100.00000 ; unretract
G1 F840
G1 X151.968 Y167.293 E0.02067 ; perimeter
G1 X152.682 Y167.395 E0.02264 ; perimeter
G1 X153.301 Y167.710 E0.02175 ; perimeter
G1 X153.790 Y168.199 E0.02170 ; perimeter
G1 X154.104 Y168.816 E0.02172 ; perimeter
G1 X154.213 Y169.500 E0.02170 ; perimeter
G1 X154.104 Y170.184 E0.02170 ; perimeter
G1 X153.790 Y170.801 E0.02172 ; perimeter
G1 X153.301 Y171.290 E0.02170 ; perimeter
G1 X152.684 Y171.604 E0.02170 ; perimeter
G1 X152.000 Y171.713 E0.02171 ; perimeter
G1 X151.316 Y171.604 E0.02170 ; perimeter
G1 X150.699 Y171.290 E0.02170 ; perimeter
G1 X150.210 Y170.801 E0.02170 ; perimeter
G1 X149.896 Y170.184 E0.02172 ; perimeter
G1 X149.787 Y169.500 E0.02170 ; perimeter
G1 X149.896 Y168.816 E0.02170 ; perimeter
G1 X150.210 Y168.199 E0.02172 ; perimeter
G1 X150.699 Y167.710 E0.02170 ; perimeter
G1 X151.263 Y167.423 E0.01982 ; perimeter
G1 X151.399 Y167.005 F7200.000 ; move inwards before travel
G1 F5760
G1 X151.968 Y167.293 E-0.24822 ; wipe and retract
G1 F5760
G1 X152.682 Y167.395 E-0.25010 ; wipe and retract
G1 F5760
G1 X153.301 Y167.710 E-0.24030 ; wipe and retract
G1 F5760
G1 X153.344 Y167.754 E-0.02138 ; wipe and retract
G1 E-0.04000 F2100.00000 ; retract
G1 X100.213 Y169.500 F7200.000 ; move to first perimeter point
G1 E0.80000 F2100.00000 ; unretract
G1 F840
G1 X100.104 Y170.184 E0.02170 ; perimeter
G1 X99.790 Y170.801 E0.02172 ; perimeter
G1 X99.300 Y171.290 E0.02170 ; perimeter
G1 X98.684 Y171.604 E0.02170 ; perimeter
G1 X98.000 Y171.713 E0.02171 ; perimeter
G1 X97.316 Y171.604 E0.02171 ; perimeter
G1 X96.700 Y171.290 E0.02170 ; perimeter
G1 X96.210 Y170.801 E0.02170 ; perimeter
G1 X95.896 Y170.184 E0.02172 ; perimeter
G1 X95.787 Y169.500 E0.02170 ; perimeter
G1 X95.896 Y168.816 E0.02170 ; perimeter
G1 X96.210 Y168.199 E0.02172 ; perimeter
G1 X96.700 Y167.710 E0.02170 ; perimeter
G1 X97.316 Y167.396 E0.02170 ; perimeter
G1 X97.968 Y167.293 E0.02068 ; perimeter
G1 X98.682 Y167.395 E0.02264 ; perimeter
G1 X99.300 Y167.710 E0.02175 ; perimeter
G1 X99.790 Y168.199 E0.02170 ; perimeter
G1 X100.104 Y168.816 E0.02172 ; perimeter
G1 X100.203 Y169.441 E0.01982 ; perimeter
G1 X100.559 Y169.700 F7200.000 ; move inwards before travel
G1 F5760
G1 X100.104 Y170.184 E-0.25958 ; wipe and retract
G1 F5760
G1 X99.790 Y170.801 E-0.23993 ; wipe and retract
G1 F5760
G1 X99.300 Y171.290 E-0.23967 ; wipe and retract
G1 F5760
G1 X99.247 Y171.317 E-0.02081 ; wipe and retract
G1 E-0.04000 F2100.00000 ; retract
G1 X98.000 Y79.713 F7200.000 ; move to first perimeter point
G1 E0.80000 F2100.00000 ; unretract
G1 F840
G1 X97.316 Y79.604 E0.02171 ; perimeter
G1 X96.699 Y79.290 E0.02171 ; perimeter
G1 X96.210 Y78.801 E0.02170 ; perimeter
G1 X95.896 Y78.184 E0.02171 ; perimeter
G1 X95.787 Y77.500 E0.02170 ; perimeter
G1 X95.896 Y76.816 E0.02170 ; perimeter
G1 X96.210 Y76.199 E0.02171 ; perimeter
G1 X96.699 Y75.710 E0.02170 ; perimeter
G1 X97.316 Y75.396 E0.02171 ; perimeter
G1 X97.968 Y75.293 E0.02067 ; perimeter
G1 X98.682 Y75.395 E0.02264 ; perimeter
G1 X99.301 Y75.710 E0.02176 ; perimeter
G1 X99.790 Y76.199 E0.02170 ; perimeter
G1 X100.104 Y76.816 E0.02171 ; perimeter
G1 X100.213 Y77.500 E0.02170 ; perimeter
G1 X100.104 Y78.184 E0.02170 ; perimeter
G1 X99.790 Y78.801 E0.02171 ; perimeter
G1 X99.301 Y79.290 E0.02170 ; perimeter
G1 X98.684 Y79.604 E0.02171 ; perimeter
G1 X98.059 Y79.703 E0.01982 ; perimeter
G1 X97.800 Y80.059 F7200.000 ; move inwards before travel
G1 F5760
G1 X97.316 Y79.604 E-0.25961 ; wipe and retract
G1 F5760
G1 X96.699 Y79.290 E-0.23977 ; wipe and retract
G1 F5760
G1 X96.210 Y78.801 E-0.23975 ; wipe and retract
G1 F5760
G1 X96.183 Y78.747 E-0.02087 ; wipe and retract
G1 E-0.04000 F2100.00000 ; retract
G1 X149.787 Y77.500 F7200.000 ; move to first perimeter point
G1 E0.80000 F2100.00000 ; unretract
G1 F840
G1 X149.896 Y76.816 E0.02170 ; perimeter
G1 X150.210 Y76.199 E0.02171 ; perimeter
G1 X150.699 Y75.710 E0.02170 ; perimeter
G1 X151.316 Y75.396 E0.02171 ; perimeter
G1 X151.968 Y75.293 E0.02067 ; perimeter
G1 X152.682 Y75.395 E0.02264 ; perimeter
G1 X153.301 Y75.710 E0.02176 ; perimeter
G1 X153.790 Y76.199 E0.02170 ; perimeter
G1 X154.104 Y76.816 E0.02171 ; perimeter
G1 X154.213 Y77.500 E0.02170 ; perimeter
G1 X154.104 Y78.184 E0.02170 ; perimeter
G1 X153.790 Y78.801 E0.02171 ; perimeter
G1 X153.301 Y79.290 E0.02170 ; perimeter
G1 X152.684 Y79.604 E0.02171 ; perimeter
G1 X152.000 Y79.713 E0.02170 ; perimeter
G1 X151.316 Y79.604 E0.02170 ; perimeter
G1 X150.699 Y79.290 E0.02171 ; perimeter
G1 X150.210 Y78.801 E0.02170 ; perimeter
G1 X149.896 Y78.184 E0.02171 ; perimeter
G1 X149.797 Y77.559 E0.01982 ; perimeter
G1 X149.441 Y77.300 F7200.000 ; move inwards before travel
G1 F5760
G1 X149.896 Y76.816 E-0.25960 ; wipe and retract
G1 F5760
G1 X150.210 Y76.199 E-0.23979 ; wipe and retract
G1 F5760
G1 X150.699 Y75.710 E-0.23973 ; wipe and retract
G1 F5760
G1 X150.753 Y75.683 E-0.02088 ; wipe and retract
G1 E-0.04000 F2100.00000 ; retract
G1 X100.929 Y177.618 F7200.000 ; move to first perimeter point
G1 E0.80000 F2100.00000 ; unretract
G1 F840
G1 X101.779 Y178.053 E0.02993 ; perimeter
G1 X102.448 Y178.721 E0.02966 ; perimeter
G1 X102.878 Y179.565 E0.02971 ; perimeter
G1 X103.026 Y180.500 E0.02967 ; perimeter
G1 X102.878 Y181.435 E0.02967 ; perimeter
G1 X102.448 Y182.279 E0.02971 ; perimeter
G1 X101.779 Y182.948 E0.02966 ; perimeter
G1 X100.935 Y183.378 E0.02970 ; perimeter
G1 X100.000 Y183.526 E0.02969 ; perimeter
G1 X99.065 Y183.378 E0.02969 ; perimeter
G1 X98.221 Y182.948 E0.02970 ; perimeter
G1 X97.552 Y182.279 E0.02966 ; perimeter
G1 X97.122 Y181.435 E0.02971 ; perimeter
G1 X96.974 Y180.500 E0.02967 ; perimeter
G1 X97.122 Y179.565 E0.02967 ; perimeter
G1 X97.552 Y178.721 E0.02971 ; perimeter
G1 X98.221 Y178.053 E0.02966 ; perimeter
G1 X99.065 Y177.622 E0.02970 ; perimeter
G1 X99.961 Y177.480 E0.02846 ; perimeter
G1 X100.870 Y177.610 E0.02877 ; perimeter
G1 X100.813 Y177.983 F7200.000 ; move to first perimeter point
G1 F840
G1 X101.554 Y178.361 E0.02609 ; perimeter
G1 X102.139 Y178.946 E0.02592 ; perimeter
G1 X102.515 Y179.683 E0.02596 ; perimeter
G1 X102.644 Y180.500 E0.02592 ; perimeter
G1 X102.515 Y181.317 E0.02592 ; perimeter
G1 X102.139 Y182.054 E0.02596 ; perimeter
G1 X101.554 Y182.639 E0.02592 ; perimeter
G1 X100.817 Y183.015 E0.02595 ; perimeter
G1 X100.000 Y183.144 E0.02595 ; perimeter
G1 X99.183 Y183.015 E0.02595 ; perimeter
G1 X98.446 Y182.639 E0.02595 ; perimeter
G1 X97.861 Y182.054 E0.02592 ; perimeter
G1 X97.485 Y181.317 E0.02596 ; perimeter
G1 X97.356 Y180.500 E0.02592 ; perimeter
G1 X97.485 Y179.683 E0.02592 ; perimeter
G1 X97.861 Y178.946 E0.02596 ; perimeter
G1 X98.446 Y178.361 E0.02592 ; perimeter
G1 X99.183 Y177.985 E0.02595 ; perimeter
G1 X99.964 Y177.861 E0.02480 ; perimeter
G1 X100.754 Y177.974 E0.02502 ; perimeter
G1 X100.698 Y178.347 F7200.000 ; move to first perimeter point
G1 F840
G1 X101.330 Y178.670 E0.02226 ; perimeter
G1 X101.830 Y179.170 E0.02218 ; perimeter
G1 X102.152 Y179.801 E0.02221 ; perimeter
G1 X102.263 Y180.500 E0.02218 ; perimeter
G1 X102.152 Y181.199 E0.02218 ; perimeter
G1 X101.830 Y181.830 E0.02221 ; perimeter
G1 X101.330 Y182.330 E0.02218 ; perimeter
G1 X100.699 Y182.652 E0.02221 ; perimeter
G1 X100.000 Y182.763 E0.02220 ; perimeter
G1 X99.301 Y182.652 E0.02220 ; perimeter
G1 X98.670 Y182.330 E0.02221 ; perimeter
G1 X98.170 Y181.830 E0.02218 ; perimeter
G1 X97.848 Y181.199 E0.02221 ; perimeter
G1 X97.737 Y180.500 E0.02218 ; perimeter
G1 X97.848 Y179.801 E0.02218 ; perimeter
G1 X98.170 Y179.170 E0.02221 ; perimeter
G1 X98.670 Y178.670 E0.02218 ; perimeter
G1 X99.301 Y178.348 E0.02221 ; perimeter
G1 X99.967 Y178.243 E0.02114 ; perimeter
G1 X100.638 Y178.339 E0.02127 ; perimeter
G1 X100.995 Y178.080 F7200.000 ; move inwards before travel
G1 F5760
G1 X101.330 Y178.670 E-0.26561 ; wipe and retract
G1 F5760
G1 X101.830 Y179.170 E-0.24503 ; wipe and retract
G1 F5760
G1 X102.152 Y179.801 E-0.24537 ; wipe and retract
G1 F5760
G1 X102.154 Y179.813 E-0.00399 ; wipe and retract
G1 E-0.04000 F2100.00000 ; retract
G1 X116.974 Y180.500 F7200.000 ; move to first perimeter point
G1 E0.80000 F2100.00000 ; unretract
G1 F840
G1 X117.122 Y179.566 E0.02967 ; perimeter
G1 X117.552 Y178.721 E0.02971 ; perimeter
G1 X118.221 Y178.053 E0.02966 ; perimeter
G1 X119.065 Y177.622 E0.02970 ; perimeter
G1 X119.961 Y177.480 E0.02846 ; perimeter
G1 X120.929 Y177.618 E0.03065 ; perimeter
G1 X121.779 Y178.053 E0.02993 ; perimeter
G1 X122.448 Y178.721 E0.02966 ; perimeter
G1 X122.878 Y179.566 E0.02971 ; perimeter
G1 X123.026 Y180.500 E0.02967 ; perimeter
G1 X122.878 Y181.435 E0.02967 ; perimeter
G1 X122.448 Y182.279 E0.02971 ; perimeter
G1 X121.779 Y182.948 E0.02966 ; perimeter
G1 X120.935 Y183.378 E0.02970 ; perimeter
G1 X120.000 Y183.526 E0.02969 ; perimeter
G1 X119.065 Y183.378 E0.02969 ; perimeter
G1 X118.221 Y182.948 E0.02970 ; perimeter
G1 X117.552 Y182.279 E0.02966 ; perimeter
G1 X117.122 Y181.435 E0.02971 ; perimeter
G1 X116.983 Y180.559 E0.02779 ; perimeter
G1 X117.356 Y180.500 F7200.000 ; move to first perimeter point
G1 F840
G1 X117.485 Y179.683 E0.02593 ; perimeter
G1 X117.861 Y178.946 E0.02596 ; perimeter
G1 X118.446 Y178.361 E0.02592 ; perimeter
G1 X119.183 Y177.985 E0.02595 ; perimeter
G1 X119.964 Y177.861 E0.02480 ; perimeter
G1 X120.813 Y177.983 E0.02690 ; perimeter
G1 X121.554 Y178.361 E0.02609 ; perimeter
G1 X122.139 Y178.946 E0.02592 ; perimeter
G1 X122.515 Y179.683 E0.02596 ; perimeter
G1 X122.644 Y180.500 E0.02592 ; perimeter
G1 X122.515 Y181.317 E0.02592 ; perimeter
G1 X122.139 Y182.054 E0.02596 ; perimeter
G1 X121.554 Y182.639 E0.02592 ; perimeter
G1 X120.817 Y183.015 E0.02595 ; perimeter
G1 X120.000 Y183.144 E0.02595 ; perimeter
G1 X119.183 Y183.015 E0.02595 ; perimeter
G1 X118.446 Y182.639 E0.02595 ; perimeter
G1 X117.861 Y182.054 E0.02592 ; perimeter
G1 X117.485 Y181.317 E0.02596 ; perimeter
G1 X117.365 Y180.560 E0.02403 ; perimeter
G1 X117.737 Y180.500 F7200.000 ; move to first perimeter point
G1 F840
G1 X117.848 Y179.801 E0.02219 ; perimeter
G1 X118.169 Y179.170 E0.02221 ; perimeter
G1 X118.670 Y178.670 E0.02218 ; perimeter
G1 X119.301 Y178.348 E0.02221 ; perimeter
G1 X119.967 Y178.243 E0.02114 ; perimeter
G1 X120.698 Y178.347 E0.02316 ; perimeter
G1 X121.330 Y178.670 E0.02226 ; perimeter
G1 X121.831 Y179.170 E0.02218 ; perimeter
G1 X122.152 Y179.801 E0.02221 ; perimeter
G1 X122.263 Y180.500 E0.02218 ; perimeter
G1 X122.152 Y181.199 E0.02218 ; perimeter
G1 X121.831 Y181.830 E0.02221 ; perimeter
G1 X121.330 Y182.330 E0.02218 ; perimeter
G1 X120.699 Y182.652 E0.02221 ; perimeter
G1 X120.000 Y182.763 E0.02220 ; perimeter
G1 X119.301 Y182.652 E0.02220 ; perimeter
G1 X118.670 Y182.330 E0.02221 ; perimeter
G1 X118.169 Y181.830 E0.02218 ; perimeter
G1 X117.848 Y181.199 E0.02221 ; perimeter
G1 X117.747 Y180.560 E0.02028 ; perimeter
G1 X117.391 Y180.301 F7200.000 ; move inwards before travel
G1 F5760
G1 X117.848 Y179.801 E-0.26500 ; wipe and retract
G1 F5760
G1 X118.169 Y179.170 E-0.24537 ; wipe and retract
G1 F5760
G1 X118.670 Y178.670 E-0.24502 ; wipe and retract
G1 F5760
G1 X118.682 Y178.664 E-0.00460 ; wipe and retract
G1 E-0.04000 F2100.00000 ; retract
G1 X136.974 Y180.500 F7200.000 ; move to first perimeter point
G1 E0.80000 F2100.00000 ; unretract
G1 F840
G1 X137.122 Y179.566 E0.02967 ; perimeter
G1 X137.552 Y178.721 E0.02971 ; perimeter
G1 X138.221 Y178.053 E0.02966 ; perimeter
G1 X139.065 Y177.622 E0.02970 ; perimeter
G1 X139.961 Y177.480 E0.02846 ; perimeter
G1 X140.929 Y177.618 E0.03065 ; perimeter
G1 X141.779 Y178.053 E0.02993 ; perimeter
G1 X142.448 Y178.721 E0.02966 ; perimeter
G1 X142.878 Y179.566 E0.02971 ; perimeter
G1 X143.026 Y180.500 E0.02967 ; perimeter
G1 X142.878 Y181.435 E0.02967 ; perimeter
G1 X142.448 Y182.279 E0.02971 ; perimeter
G1 X141.779 Y182.948 E0.02966 ; perimeter
G1 X140.935 Y183.378 E0.02970 ; perimeter
G1 X140.000 Y183.526 E0.02970 ; perimeter
G1 X139.065 Y183.378 E0.02969 ; perimeter
G1 X138.221 Y182.948 E0.02970 ; perimeter
G1 X137.552 Y182.279 E0.02966 ; perimeter
G1 X137.122 Y181.435 E0.02971 ; perimeter
G1 X136.983 Y180.559 E0.02779 ; perimeter
G1 X137.356 Y180.500 F7200.000 ; move to first perimeter point
G1 F840
G1 X137.485 Y179.683 E0.02593 ; perimeter
G1 X137.861 Y178.946 E0.02596 ; perimeter
G1 X138.446 Y178.361 E0.02592 ; perimeter
G1 X139.183 Y177.985 E0.02595 ; perimeter
G1 X139.964 Y177.861 E0.02480 ; perimeter
G1 X140.813 Y177.983 E0.02691 ; perimeter
G1 X141.554 Y178.361 E0.02609 ; perimeter
G1 X142.139 Y178.946 E0.02592 ; perimeter
G1 X142.515 Y179.683 E0.02596 ; perimeter
G1 X142.644 Y180.500 E0.02592 ; perimeter
G1 X142.515 Y181.317 E0.02592 ; perimeter
G1 X142.139 Y182.054 E0.02596 ; perimeter
G1 X141.554 Y182.639 E0.02592 ; perimeter
G1 X140.817 Y183.015 E0.02595 ; perimeter
G1 X140.000 Y183.144 E0.02595 ; perimeter
G1 X139.183 Y183.015 E0.02595 ; perimeter
G1 X138.446 Y182.639 E0.02595 ; perimeter
G1 X137.861 Y182.054 E0.02592 ; perimeter
G1 X137.485 Y181.317 E0.02596 ; perimeter
G1 X137.365 Y180.559 E0.02403 ; perimeter
G1 X137.737 Y180.500 F7200.000 ; move to first perimeter point
G1 F840
G1 X137.848 Y179.801 E0.02219 ; perimeter
G1 X138.169 Y179.170 E0.02221 ; perimeter
G1 X138.670 Y178.670 E0.02218 ; perimeter
G1 X139.301 Y178.348 E0.02221 ; perimeter
G1 X139.967 Y178.243 E0.02114 ; perimeter
G1 X140.698 Y178.347 E0.02316 ; perimeter
G1 X141.330 Y178.670 E0.02226 ; perimeter
G1 X141.831 Y179.170 E0.02218 ; perimeter
G1 X142.152 Y179.801 E0.02221 ; perimeter
G1 X142.263 Y180.500 E0.02218 ; perimeter
G1 X142.152 Y181.199 E0.02218 ; perimeter
G1 X141.831 Y181.830 E0.02221 ; perimeter
G1 X141.330 Y182.330 E0.02218 ; perimeter
G1 X140.699 Y182.652 E0.02221 ; perimeter
G1 X140.000 Y182.763 E0.02220 ; perimeter
G1 X139.301 Y182.652 E0.02220 ; perimeter
G1 X138.670 Y182.330 E0.02221 ; perimeter
G1 X138.169 Y181.830 E0.02218 ; perimeter
G1 X137.848 Y181.199 E0.02221 ; perimeter
G1 X137.747 Y180.560 E0.02028 ; perimeter
